src/assets/outline/LikeTag.svg

<?xml version="1.0" encoding="UTF-8"?>
<svg width="24" height="24" viewBox="0 0 24 24" xmlns="http://www.w3.org/2000/svg">
 <path d="m14.23 16.11h-1.98c-0.46 0-1.13-0.14-1.52-0.53l-1.54-1.19 0.92001-1.19 1.61 1.25c0.12 0.09 0.34 0.15 0.53 0.15h1.98c0.3 0 0.66-0.26 0.73-0.52l1.26-3.85c0.03-0.08 0.06-0.19 0.01-0.27001-0.04-0.06-0.15-0.09998-0.28-0.09998h-2.08c-0.37 0-0.72-0.15994-0.97-0.43994-0.24-0.28-0.35-0.66004-0.3-1.04l0.26-1.67c0.03-0.13-0.06-0.27995-0.17-0.31995-0.09-0.03-0.24 0.01995-0.28 0.06995l-2.13 3.17-1.25-0.83997 2.13-3.17c0.42-0.63 1.31-0.92002 2.03-0.65002 0.81 0.27 1.33 1.17 1.15 2.01l-0.21 1.37h1.82c0.63 0 1.18 0.26999 1.51 0.73999 0.32 0.46 0.39 1.05 0.19 1.62l-1.24 3.78c-0.23 0.89-1.19 1.62-2.18 1.62z"/>
 <path d="m8.56 15.54h-0.52001c-1.56 0-1.79-1.09-1.79-1.74v-5.0901c0-0.65 0.22999-1.74 1.79-1.74h0.52001c1.56 0 1.79 1.09 1.79 1.74v5.0901c0 0.65-0.23 1.74-1.79 1.74zm-0.78-1.51c0.03 0 0.10999 0.01 0.25999 0.01h0.52001c0.16 0 0.25-0.02 0.28-0.03 0-0.02 0.01001-0.08 0.01001-0.21v-5.0901c0-0.13-0.01001-0.19997-0.02001-0.21997-0.02 0-0.1-0.01001-0.27-0.01001h-0.52001c-0.16 0-0.25 0.02003-0.28 0.03003 0 0.02-0.00999 0.07996-0.00999 0.20996v5.0901c0 0.13 0.01 0.2 0.02 0.23 0-0.01 0.01-0.01 0.01-0.01z"/>
 <path d="m12 22.75c-0.7 0-1.41-0.2701-1.94-0.8001l-1.71-1.6899c-0.43-0.42-0.99002-0.6501-1.59-0.6501h-0.75999c-2.07 0-3.75-1.6699-3.75-3.7199v-10.91c0-2.05 1.68-3.72 3.75-3.72h12c2.07 0 3.75 1.67 3.75 3.72v10.91c0 2.05-1.68 3.7199-3.75 3.7199h-0.76c-0.6 0-1.17 0.2301-1.59 0.6501l-1.71 1.6899c-0.53 0.53-1.24 0.8001-1.94 0.8001zm-6-20c-1.24 0-2.25 0.99997-2.25 2.22v10.91c0 1.23 1.01 2.2199 2.25 2.2199h0.75999c1 0 1.94 0.39 2.65 1.09l1.71 1.6901c0.49 0.48 1.28 0.48 1.77 0l1.71-1.6901c0.71-0.7 1.65-1.09 2.65-1.09h0.75c1.24 0 2.25-0.9999 2.25-2.2199v-10.91c0-1.23-1.01-2.22-2.25-2.22h-12z"/>
</svg>

<svg width="24" height="24" viewBox="0 0 24 24"  xmlns="http://www.w3.org/2000/svg">
<path d="M14.2298 16.1101H12.2498C11.7898 16.1101 11.1198 15.9701 10.7298 15.5801L9.18979 14.3901L10.1098 13.2001L11.7198 14.4501C11.8398 14.5401 12.0598 14.6001 12.2498 14.6001H14.2298C14.5298 14.6001 14.8898 14.3401 14.9598 14.0801L16.2198 10.2301C16.2498 10.1501 16.2798 10.0401 16.2298 9.96009C16.1898 9.90009 16.0798 9.86011 15.9498 9.86011H13.8698C13.4998 9.86011 13.1498 9.70017 12.8998 9.42017C12.6598 9.14017 12.5498 8.76013 12.5998 8.38013L12.8598 6.71009C12.8898 6.58009 12.7998 6.43014 12.6898 6.39014C12.5998 6.36014 12.4498 6.41009 12.4098 6.46009L10.2798 9.63013L9.02979 8.79016L11.1598 5.62012C11.5798 4.99012 12.4698 4.7001 13.1898 4.9701C13.9998 5.2401 14.5198 6.14011 14.3398 6.9801L14.1298 8.3501H15.9498C16.5798 8.3501 17.1298 8.62009 17.4598 9.09009C17.7798 9.55009 17.8498 10.1401 17.6498 10.7101L16.4098 14.4901C16.1798 15.3801 15.2198 16.1101 14.2298 16.1101Z" />
<path d="M8.56 15.5398H8.03999C6.47999 15.5398 6.25 14.4498 6.25 13.7998V8.70972C6.25 8.05972 6.47999 6.96973 8.03999 6.96973H8.56C10.12 6.96973 10.35 8.05972 10.35 8.70972V13.7998C10.35 14.4498 10.12 15.5398 8.56 15.5398ZM7.78 14.0298C7.81 14.0298 7.88999 14.0398 8.03999 14.0398H8.56C8.72 14.0398 8.81 14.0198 8.84 14.0098C8.84 13.9898 8.85001 13.9298 8.85001 13.7998V8.70972C8.85001 8.57972 8.84 8.50975 8.83 8.48975C8.81 8.48975 8.73 8.47974 8.56 8.47974H8.03999C7.87999 8.47974 7.78999 8.49977 7.75999 8.50977C7.75999 8.52977 7.75 8.58973 7.75 8.71973V13.8098C7.75 13.9398 7.76 14.0098 7.77 14.0398C7.77 14.0298 7.78 14.0298 7.78 14.0298Z" />
<path d="M12 22.7498C11.3 22.7498 10.59 22.4797 10.06 21.9497L8.35001 20.2598C7.92001 19.8398 7.35999 19.6097 6.75999 19.6097H6C3.93 19.6097 2.25 17.9398 2.25 15.8898V4.97974C2.25 2.92974 3.93 1.25977 6 1.25977H18C20.07 1.25977 21.75 2.92974 21.75 4.97974V15.8898C21.75 17.9398 20.07 19.6097 18 19.6097H17.24C16.64 19.6097 16.07 19.8398 15.65 20.2598L13.94 21.9497C13.41 22.4797 12.7 22.7498 12 22.7498ZM6 2.74976C4.76 2.74976 3.75 3.74973 3.75 4.96973V15.8798C3.75 17.1098 4.76 18.0997 6 18.0997H6.75999C7.75999 18.0997 8.7 18.4897 9.41 19.1897L11.12 20.8798C11.61 21.3598 12.4 21.3598 12.89 20.8798L14.6 19.1897C15.31 18.4897 16.25 18.0997 17.25 18.0997H18C19.24 18.0997 20.25 17.0998 20.25 15.8798V4.96973C20.25 3.73973 19.24 2.74976 18 2.74976H6Z" />
</svg>
